symbols/web/sync_problem/materialsymbolsoutlined/sync_problem_gradN25fill1_24px.svg

<svg xmlns="http://www.w3.org/2000/svg" height="24" width="24"><path d="M11.075 13V7.125h1.875V13ZM12 16.875q-.375 0-.65-.275t-.275-.675q0-.375.275-.65T12 15q.4 0 .675.275t.275.65q0 .4-.275.675t-.675.275Zm2.95-12.7h5.8V6.05H18l.45.425q1.2 1.2 1.763 2.613.562 1.412.562 2.862 0 2.7-1.612 4.812-1.613 2.113-4.213 2.813V17.6q1.8-.65 2.875-2.188Q18.9 13.875 18.9 11.95q0-1.1-.425-2.163-.425-1.062-1.325-1.962l-.325-.325v2.475H14.95Zm-5.9 15.65h-5.8V17.95H6l-.45-.425q-1.2-1.2-1.75-2.613-.55-1.412-.55-2.862 0-2.7 1.613-4.813Q6.475 5.125 9.05 4.425V6.4q-1.775.65-2.85 2.188-1.075 1.537-1.075 3.462 0 1.1.412 2.162.413 1.063 1.313 1.963l.325.325v-2.475H9.05Z"/></svg>

<svg xmlns="http://www.w3.org/2000/svg" height="24" width="24"><path d="M11.075 13V7.125H12.95V13ZM12 16.875Q11.625 16.875 11.35 16.6Q11.075 16.325 11.075 15.925Q11.075 15.55 11.35 15.275Q11.625 15 12 15Q12.4 15 12.675 15.275Q12.95 15.55 12.95 15.925Q12.95 16.325 12.675 16.6Q12.4 16.875 12 16.875ZM14.95 4.175H20.75V6.05H18L18.45 6.475Q19.65 7.675 20.213 9.088Q20.775 10.5 20.775 11.95Q20.775 14.65 19.163 16.762Q17.55 18.875 14.95 19.575V17.6Q16.75 16.95 17.825 15.412Q18.9 13.875 18.9 11.95Q18.9 10.85 18.475 9.787Q18.05 8.725 17.15 7.825L16.825 7.5V9.975H14.95ZM9.05 19.825H3.25V17.95H6L5.55 17.525Q4.35 16.325 3.8 14.912Q3.25 13.5 3.25 12.05Q3.25 9.35 4.863 7.237Q6.475 5.125 9.05 4.425V6.4Q7.275 7.05 6.2 8.588Q5.125 10.125 5.125 12.05Q5.125 13.15 5.537 14.212Q5.95 15.275 6.85 16.175L7.175 16.5V14.025H9.05Z"/></svg>
